X: 22
T:Convenience Reel
M:C
L:1/8
K:D
Vd2 (3A{c}BA d2 (3A{c}BA| GAFA EA D2| d2 (3A{c}BA d2 (3A{c}BA| GAEA D3 A:|
|: d ~f3 d ~f3| ecAe gedc| d ~f3 d ~f3 | eABc 1d3 A :| 
|: efga gage| ef{g}fe Ae (3eee| Ae (3eee agag |e f{g}fe A d{e}dc d2|
efga (3AAA a A aA|gA (3AAA gAgA| fgaf gbag| (3fga ec d2 z2:|
